folder-arrow-left-right.svg

<svg fill="currentColor" viewBox="0 0 24 24"><path d="M13 19c0 .34.04.67.09 1H4a2 2 0 0 1-2-2V6c0-1.11.89-2 2-2h6l2 2h8a2 2 0 0 1 2 2v5.81c-.88-.51-1.9-.81-3-.81-3.31 0-6 2.69-6 6m10-2-3-2.5V16h-4v2h4v1.5zm-5 1.5L15 21l3 2.5V22h4v-2h-4z"/></svg>

<svg  viewBox="0 0 24 24" fill="currentColor"><path  d="M13 19C13 19.34 13.04 19.67 13.09 20H4C2.9 20 2 19.11 2 18V6C2 4.89 2.89 4 4 4H10L12 6H20C21.1 6 22 6.89 22 8V13.81C21.12 13.3 20.1 13 19 13C15.69 13 13 15.69 13 19M23 17L20 14.5V16H16V18H20V19.5L23 17M18 18.5L15 21L18 23.5V22H22V20H18V18.5Z"/></svg>
